tencentcloud.svg

<svg viewBox="0 0 24 24" xmlns="http://www.w3.org/2000/svg"><path d="M22.4087 11.1988C21.4041 10.1744 20.0039 9.52876 18.4471 9.52876C17.1014 9.52857 15.9432 9.99259 14.9315 10.8162C14.4908 11.1753 14.0283 11.6051 13.4463 12.1702C13.2531 12.358 9.44003 16.058 6.93624 18.4872C6.58752 18.4859 6.08687 18.481 5.64275 18.466C4.39132 18.4234 3.6291 17.9432 3.20187 17.5203C1.87008 16.2026 1.83908 14.0624 3.14948 12.7232C3.76186 12.102 4.61873 11.7174 5.56088 11.7086C6.1511 11.7062 6.95239 11.8776 7.85771 12.628C8.30353 12.9976 9.30989 13.883 9.70838 14.2438L11.2712 12.7191C10.5555 12.0716 9.51101 11.1381 8.89037 10.676C8.25001 10.1967 7.55932 9.85607 6.81117 9.67599C6.81906 9.67767 6.82695 9.67861 6.83464 9.68049C7.33923 7.27228 9.4682 5.4834 12 5.4834C14.1085 5.4834 15.9584 6.7553 16.7923 8.55732C16.8055 8.58568 16.8276 8.59507 16.8505 8.58888C17.4776 8.41648 18.2297 8.31638 18.956 8.36991C19.0268 8.37517 19.0541 8.33535 19.0311 8.27076C18.0062 5.37562 15.2463 3.30074 12 3.30074C8.2763 3.30074 5.19037 6.03908 4.6317 9.60593C4.6332 9.60556 4.63488 9.60613 4.63658 9.60575C3.45032 9.80443 2.39419 10.38 1.5912 11.1988C-0.560851 13.3985-0.527807 16.9464 1.67721 19.1118C2.56264 19.9812 3.63528 20.4597 4.77892 20.6475L4.77873 20.6475C5.21798 20.6475 5.82189 20.6955 6.36066 20.6989C6.86526 20.7021 16.4921 20.6843 16.8951 20.6843C17.7061 20.6843 18.2338 20.6752 18.8009 20.6337C20.1012 20.5389 21.3297 20.0577 22.3227 19.0825C24.5277 16.9171 24.561 13.3985 22.4087 11.1988ZM20.7982 17.5203C20.3708 17.9432 19.6086 18.4706 18.3574 18.513C17.7786 18.5327 17.1031 18.5818 16.7938 18.5818L10.0704 18.5818C12.5168 16.1406 14.6506 14.0865 14.8927 13.8513C15.1144 13.636 15.613 13.1353 16.0433 12.7479C16.9876 11.8976 17.8379 11.7147 18.4392 11.7204C19.3814 11.7292 20.2381 12.1079 20.8506 12.7291C22.1608 14.0682 22.1299 16.2026 20.7982 17.5203Z" fill="#006eff"/><path d="M6.93624 18.4872C6.93624 18.4872 6.08687 18.481 5.64275 18.466C4.39132 18.4234 3.6291 17.9432 3.20187 17.5203C1.87008 16.2026 1.83908 14.0624 3.14948 12.7232C3.76186 12.102 4.61873 11.7174 5.56088 11.7086C6.1511 11.7062 6.95239 11.8776 7.85771 12.628C8.30353 12.9976 9.30989 13.883 9.70838 14.2438L11.2712 12.7191C10.5555 12.0716 9.51101 11.1381 8.89037 10.676C8.25001 10.1967 7.37762 9.78473 6.81117 9.67599C6.27699 9.57344 5.17673 9.54172 4.63658 9.60575C3.64353 9.72346 2.39419 10.38 1.5912 11.1988C-0.560851 13.3985-0.527807 16.9464 1.67721 19.1118C2.56264 19.9812 3.47759 20.4328 4.62123 20.6205L5.0841 20.6521C5.52335 20.6521 6.36066 20.6989 6.36066 20.6989L6.93624 18.4872Z" fill="#00c8dc"/><path d="M22.4087 11.1988C21.4041 10.1744 20.0039 9.52876 18.4471 9.52876C17.1014 9.52857 15.9432 9.99259 14.9315 10.8162C14.4908 11.1753 14.0283 11.6051 13.4463 12.1702C13.2531 12.358 6.93624 18.4872 6.93624 18.4872L4.67096 20.6288C4.67096 20.6288 5.44219 20.6993 6.63152 20.6993C7.23205 20.6993 16.6174 20.6843 16.8951 20.6843C17.7061 20.6843 18.2338 20.6752 18.8009 20.6337C20.1012 20.5389 21.3297 20.0577 22.3227 19.0825C24.5277 16.9171 24.561 13.3985 22.4087 11.1988ZM20.7982 17.5203C20.3708 17.9432 19.6086 18.4706 18.3574 18.513C17.7786 18.5327 17.1031 18.5818 16.7938 18.5818L10.0704 18.5818C12.5168 16.1406 14.6506 14.0865 14.8927 13.8513C15.1144 13.636 15.613 13.1353 16.0433 12.7479C16.9876 11.8976 17.8379 11.7147 18.4392 11.7204C19.3814 11.7292 20.2381 12.1079 20.8506 12.7291C22.1608 14.0682 22.1299 16.2026 20.7982 17.5203Z" fill="#00a3ff"/></svg>

<svg viewBox="0 0 24 24" xmlns="http://www.w3.org/2000/svg"><path d="M22.409 11.199a5.534 5.534 0 0 0-3.962-1.67c-1.346 0-2.504.464-3.515 1.287-.441.36-.904.79-1.486 1.354l-6.51 6.317c-.348-.001-.85-.006-1.293-.021-1.252-.043-2.014-.523-2.441-.946a3.399 3.399 0 0 1-.053-4.797 3.424 3.424 0 0 1 2.412-1.014c.59-.003 1.391.169 2.297.919.446.37 1.452 1.255 1.85 1.616l1.563-1.525c-.716-.647-1.76-1.58-2.38-2.043a5.667 5.667 0 0 0-2.08-1l.024.004A5.281 5.281 0 0 1 12 5.483c2.108 0 3.958 1.272 4.792 3.074.013.029.036.038.058.032a6.396 6.396 0 0 1 2.106-.22c.07.006.098-.034.075-.098A7.46 7.46 0 0 0 12 3.3c-3.724 0-6.81 2.738-7.368 6.305h.005a5.55 5.55 0 0 0-3.046 1.593c-2.152 2.2-2.119 5.747.086 7.913.886.87 1.958 1.348 3.102 1.536.439 0 1.043.047 1.582.05.504.004 10.131-.014 10.534-.014.811 0 1.339-.009 1.906-.05 1.3-.095 2.529-.576 3.522-1.552a5.572 5.572 0 0 0 .086-7.883Zm-1.61 6.321c-.428.423-1.19.95-2.442.993-.578.02-1.254.069-1.563.069H10.07c2.447-2.441 4.58-4.496 4.823-4.73.221-.216.72-.717 1.15-1.104.945-.85 1.795-1.033 2.396-1.028a3.419 3.419 0 0 1 2.412 1.01 3.392 3.392 0 0 1-.053 4.79Z" fill="#006eff"/><path d="M6.936 18.487s-.85-.006-1.293-.021c-1.252-.043-2.014-.523-2.441-.946a3.399 3.399 0 0 1-.053-4.797 3.424 3.424 0 0 1 2.412-1.014c.59-.003 1.391.169 2.297.919.446.37 1.452 1.255 1.85 1.616l1.563-1.525c-.716-.647-1.76-1.58-2.38-2.043-.641-.48-1.513-.891-2.08-1-.534-.103-1.634-.134-2.174-.07-.993.117-2.243.774-3.046 1.593-2.152 2.2-2.119 5.747.086 7.913.886.87 1.8 1.32 2.944 1.509l.463.031c.44 0 1.277.047 1.277.047l.575-2.212Z" fill="#00c8dc"/><path d="M22.409 11.199a5.534 5.534 0 0 0-3.962-1.67c-1.346 0-2.504.464-3.515 1.287-.441.36-.904.79-1.486 1.354l-6.51 6.317-2.265 2.142s.771.07 1.96.07l10.264-.015c.811 0 1.339-.009 1.906-.05 1.3-.095 2.529-.576 3.522-1.552a5.572 5.572 0 0 0 .086-7.883Zm-1.61 6.321c-.428.423-1.19.95-2.442.993-.578.02-1.254.069-1.563.069H10.07c2.447-2.441 4.58-4.496 4.823-4.73.221-.216.72-.717 1.15-1.104.945-.85 1.795-1.033 2.396-1.028a3.419 3.419 0 0 1 2.412 1.01 3.392 3.392 0 0 1-.053 4.79Z" fill="#00a3ff"/></svg>
